icons/youtube.svg

<?xml version="1.0" encoding="UTF-8"?>
<svg width="44px" height="44px" viewBox="0 0 44 44" version="1.1" xmlns="http://www.w3.org/2000/svg" xmlns:xlink="http://www.w3.org/1999/xlink">
    <title>youtube</title>
    <defs></defs>
    <g id="social-icons" stroke="none" stroke-width="1" fill="none" fill-rule="evenodd" transform="translate(-40.000000, -100.000000)">
        <g id="youtube" transform="translate(40.000000, 100.000000)">
            <rect id="Rectangle" x="0" y="0" width="44" height="44"></rect>
            <circle id="Oval" stroke="#9B9B9B" stroke-width="2" cx="22" cy="22" r="21"></circle>
            <path d="M15.9255115,28.0171834 L15.942126,23.9659484 L16.6992744,23.9580095 L17.4556316,23.9484828 L17.4469287,23.324483 L17.4374347,22.6996894 L15.252227,22.6909565 L13.0686016,22.6822237 L13.0686016,23.3157502 L13.0686016,23.9484828 L13.8075531,23.9580095 L14.5465045,23.9659484 L14.5552074,27.9838399 C14.5591632,30.1932436 14.5702396,32.0207849 14.5789425,32.0438078 C14.59081,32.0763574 14.7442967,32.0842963 15.2514358,32.0771513 L15.9088969,32.0684185 L15.9255115,28.0171834 Z M28.5296188,27.7321759 C28.4987632,27.6511988 28.5414863,26.7151992 28.5826271,26.5794435 C28.6783585,26.2602986 28.8816888,26.1046956 29.2021121,26.1046956 C29.4687359,26.1046956 29.638046,26.2079017 29.7519743,26.4397184 C29.8239706,26.5865886 29.8310912,26.6493061 29.8421675,27.1923288 L29.8532439,27.7837789 L29.2005298,27.7837789 C28.6395912,27.7837789 28.5462333,27.7766339 28.5296188,27.7321759 L28.5296188,27.7321759 Z M29.7480185,32.0969986 C30.3872827,31.9167849 30.829546,31.4785561 30.9964825,30.8601136 C31.0241734,30.7545259 31.0566114,30.4536405 31.0676877,30.1924497 L31.0866758,29.7177018 L30.4711466,29.7177018 L29.8548262,29.7177018 L29.839794,30.1432284 C29.8223883,30.6267091 29.7725447,30.7926327 29.5969052,30.9474418 C29.4101895,31.1117776 29.0668223,31.123686 28.8437127,30.9728464 C28.5778801,30.7926327 28.5122131,30.4885718 28.5256629,29.5009691 L28.535157,28.8007556 L29.8097296,28.7928167 L31.0843023,28.78329 L31.0676877,27.7417026 C31.0471173,26.5794435 31.0233823,26.4031993 30.8287548,25.9903751 C30.4576967,25.2083907 29.4299687,24.8138259 28.5762977,25.1258258 C27.9322865,25.361612 27.5517344,25.7863446 27.3990388,26.4436879 C27.3452393,26.6755046 27.33891,26.8835045 27.33891,28.5840229 C27.33891,30.6695793 27.3460305,30.7545259 27.5580637,31.1816402 C27.9370335,31.9413956 28.8856447,32.338342 29.7480185,32.0969986 L29.7480185,32.0969986 Z M24.7011538,30.909335 C24.7794795,30.8561441 24.8309055,30.7823121 24.8712551,30.6671976 C24.922681,30.5155641 24.927428,30.3226482 24.9203075,28.5340077 C24.913187,26.6699473 24.9092312,26.5603901 24.8491023,26.4381306 C24.6948245,26.1261307 24.3063607,26.0959628 23.9503348,26.3690619 L23.8332418,26.4579779 L23.8332418,28.5840229 L23.8332418,30.7100679 L23.9495436,30.7989839 C24.2130028,31.0006326 24.5017793,31.0427089 24.7011538,30.909335 L24.7011538,30.909335 Z M25.4725432,32.1097009 C25.6663795,32.0533345 25.9005654,31.8223117 26.0057909,31.5865255 C26.20833,31.1348005 26.2091212,31.123686 26.2091212,28.5840229 C26.2091212,26.4992604 26.2027919,26.2420391 26.1513659,26.0165735 C25.9844293,25.294925 25.6204918,24.9797495 25.0081272,25.0257953 C24.6655512,25.0527877 24.3957627,25.1893372 24.0721748,25.5029249 C23.9313467,25.6386806 23.8055509,25.7506194 23.7913099,25.7506194 C23.7786512,25.7506194 23.7667837,25.0599327 23.7667837,24.2168185 L23.7667837,22.6830176 L23.1686602,22.6830176 L22.5705367,22.6830176 L22.5705367,27.383657 L22.5705367,32.0850902 L23.1686602,32.0850902 L23.7667837,32.0850902 L23.7667837,31.768327 C23.7667837,31.5579454 23.7794424,31.4515637 23.8039686,31.4515637 C23.8237478,31.4515637 23.9582465,31.5627087 24.1030303,31.6992583 C24.5682375,32.138281 24.9709423,32.2589527 25.4725432,32.1097009 L25.4725432,32.1097009 Z M19.1060093,32.0787391 C19.3449422,31.9898231 19.6258071,31.7945254 19.8623665,31.553182 C19.9707566,31.442037 20.0791467,31.3515333 20.1028818,31.3515333 C20.1345285,31.3515333 20.1456049,31.442037 20.1456049,31.7183117 L20.1456049,32.0850902 L20.7437284,32.0850902 L21.3418518,32.0850902 L21.3418518,28.6006946 L21.3418518,25.117093 L20.7437284,25.117093 L20.1456049,25.117093 L20.1456049,27.8044202 L20.1456049,30.4925412 L19.8876839,30.7489686 C19.6835624,30.9529991 19.5981162,31.0149227 19.4715292,31.049854 C19.2579137,31.1093959 19.1218327,31.0681135 19.034013,30.91648 C18.9675548,30.8037472 18.9659725,30.7513503 18.9564784,27.9592293 L18.9477756,25.117093 L18.3496521,25.117093 L17.753111,25.117093 L17.753111,28.1346796 C17.753111,31.4221897 17.7562756,31.4936401 17.9398268,31.8104033 C18.1407836,32.1565406 18.6107378,32.2653039 19.1060093,32.0787391 L19.1060093,32.0787391 Z M19.6139396,34.9859746 C18.837012,34.9724784 17.917674,34.9510433 17.570351,34.938341 C15.2387771,34.8541884 13.638243,34.7644785 13.3186108,34.6993793 C12.8628977,34.6072877 12.3533851,34.2976695 12.0574881,33.9332727 C11.5843692,33.3497615 11.3311953,32.6416091 11.2085641,31.5515942 C10.9245346,29.0174884 10.9308639,26.0618254 11.2259698,23.6166356 C11.3557215,22.5448803 11.6777271,21.7708348 12.2180953,21.2309876 C12.5266511,20.9221633 12.8233393,20.7506825 13.2181324,20.6490642 C14.0741769,20.4291559 20.7722104,20.2544995 24.8467288,20.3450033 C27.2004555,20.3974002 29.7432714,20.5069574 30.4189294,20.583965 C31.2931708,20.6839955 31.9071176,21.1381022 32.3319752,21.9994759 C32.6531896,22.6496741 32.7552504,23.1561777 32.8857932,24.716971 C32.987854,25.9522682 33.0131714,26.7223442 32.9941833,28.1489696 C32.9728218,29.8558392 32.8644317,31.3594722 32.7022421,32.2033802 C32.5313497,33.0957158 32.1278537,33.8562651 31.6048912,34.2682955 C31.2021864,34.5866465 30.7725818,34.7287533 30.0961326,34.7668601 C29.8951758,34.7787685 29.6412107,34.7946464 29.5312383,34.8033792 C29.1419833,34.8335471 27.0548805,34.9176998 25.9100595,34.9502494 C24.2090469,34.997883 21.2326706,35.0145547 19.6139396,34.9859746 Z M17.5148799,19.500828 C17.4863978,19.4539883 17.4911449,16.7110887 17.5196269,16.3228751 C17.5568118,15.8251043 17.472948,15.4329212 17.1169221,14.4310285 C17.0014115,14.1063263 16.792543,13.4759754 16.6532973,13.0313955 C15.6461396,9.81692346 15.6991479,10.0050761 15.7956705,10.0042822 C16.459461,9.99872491 17.2783205,10.0026944 17.2878145,10.0122211 C17.2941439,10.0185722 17.5093417,10.8029383 17.7664715,11.7564036 C18.0243925,12.709075 18.2387992,13.5021739 18.2443374,13.5196395 C18.2490844,13.5355174 18.4001976,12.9805863 18.5797929,12.2859301 C18.955598,10.8283429 19.16684,10.0241295 19.1747517,10.0169844 C19.1913662,10.0011066 19.378082,9.99793102 19.9896554,10.0011066 L20.6661045,10.0050761 L20.6510723,10.1138394 C20.6392048,10.2019615 20.1771623,11.7579914 19.6937583,13.338632 C19.6415412,13.5132884 19.5062513,13.9634256 19.3946966,14.3397308 C19.2831418,14.7152421 19.1486431,15.1614099 19.0948436,15.3313029 L18.9975299,15.6409211 L18.9975299,17.5716685 C18.9975299,19.382538 18.9935741,19.5040036 18.9397746,19.5182937 C18.8179346,19.5516372 17.5362415,19.5357593 17.5148799,19.500828 Z M26.2572932,19.6167364 C25.92342,19.5722784 25.7280014,19.4428738 25.5942939,19.1769197 C25.4265661,18.8434848 25.4265661,18.8450725 25.4265661,15.5226311 L25.4265661,12.4224797 L26.1006418,12.4224797 L26.7739263,12.4224797 L26.7881673,15.2804938 C26.8031995,18.3846147 26.7992437,18.3123705 26.9843772,18.3592101 C27.1544784,18.4012865 27.3427765,18.3099888 27.5769625,18.0702332 L27.8016543,17.8407981 L27.8103572,15.131242 L27.8182689,12.4224797 L28.4915534,12.412953 L29.1648379,12.405014 L29.1648379,15.952921 L29.1648379,19.5016219 L29.0730623,19.5206753 C28.9630899,19.5436982 27.9424824,19.5421104 27.8602008,19.5182937 C27.8103572,19.5047975 27.8024455,19.4587517 27.8024455,19.1808892 L27.8024455,18.8585687 L27.6109827,19.0459274 C27.1710929,19.4754234 26.6963918,19.6754844 26.2572932,19.6167364 L26.2572932,19.6167364 Z M22.8647621,18.2615613 C23.0957834,18.0853171 23.0973657,18.0702332 23.1092332,16.0751805 C23.1195184,14.5247078 23.1139803,14.2611354 23.0673013,14.0499599 C23.0040078,13.7641585 22.8932442,13.6291968 22.676464,13.5696548 C22.3963903,13.4950289 22.1400517,13.6553952 22.0498585,13.9626317 C21.981818,14.1992118 21.9826091,17.716157 22.0514408,17.952737 C22.1036579,18.130569 22.2705945,18.3250728 22.3940168,18.3520651 C22.554624,18.3862025 22.751625,18.3480956 22.8655533,18.2615613 L22.8647621,18.2615613 Z M22.3370527,19.6151486 C21.7341822,19.5421104 21.1803641,19.1864465 20.9137403,18.7005841 C20.6423695,18.2059888 20.6170521,17.9471798 20.6328755,15.7687379 C20.6455341,14.0817157 20.6502812,13.9761279 20.7167393,13.7339906 C20.8757642,13.1584183 21.1835288,12.7662353 21.6606035,12.5288613 C22.3156911,12.2041592 23.0222047,12.2462355 23.6401074,12.6479452 C24.0341094,12.9027848 24.2730423,13.2727389 24.4012116,13.8229066 C24.4573846,14.0658378 24.4629228,14.2524026 24.4629228,15.9560966 C24.4629228,18.0281568 24.4534287,18.1480347 24.2413955,18.5965841 C24.0380652,19.0292557 23.5776051,19.4103242 23.0973657,19.5444921 C22.8853325,19.6024463 22.5174391,19.6373776 22.3370527,19.6151486 L22.3370527,19.6151486 Z" id="Shape" fill="#9B9B9B"></path>
        </g>
    </g>
</svg>

<svg width="44" height="44" xmlns="http://www.w3.org/2000/svg"><g fill="none" fill-rule="evenodd"><path d="M0 0h44v44H0z"/><circle stroke="#9B9B9B" stroke-width="2" cx="22" cy="22" r="21"/><path d="M15.926 28.017l.016-4.051.757-.008.757-.01-.01-.624-.009-.624-2.185-.009-2.183-.009v1.266l.739.01.739.008.008 4.018c.004 2.21.015 4.037.024 4.06.012.032.165.04.672.033l.658-.009.017-4.05zm12.604-.285c-.031-.08.011-1.017.053-1.153.095-.319.299-.474.62-.474.266 0 .435.103.549.335.072.147.08.21.09.752l.011.592h-.652c-.561 0-.655-.007-.671-.052zm1.218 4.365c.64-.18 1.082-.618 1.248-1.237.028-.105.06-.406.072-.668l.019-.474h-1.232l-.015.425c-.018.484-.067.65-.243.804-.187.165-.53.177-.753.026-.266-.18-.332-.484-.318-1.472l.01-.7 1.274-.008 1.274-.01-.016-1.041c-.02-1.163-.045-1.339-.24-1.752-.37-.782-1.398-1.176-2.252-.864-.644.236-1.024.66-1.177 1.318-.054.232-.06.44-.06 2.14 0 2.086.007 2.17.22 2.598.378.76 1.327 1.156 2.189.915zm-5.047-1.188a.448.448 0 0 0 .17-.242c.052-.151.056-.344.05-2.133-.008-1.864-.012-1.974-.072-2.096-.154-.312-.543-.342-.899-.069l-.117.089v4.252l.117.089c.263.202.552.244.751.11zm.772 1.2c.193-.056.428-.287.533-.522.202-.452.203-.463.203-3.003 0-2.085-.006-2.342-.058-2.567-.167-.722-.53-1.037-1.143-.991-.342.027-.612.163-.936.477-.14.136-.266.248-.28.248-.013 0-.025-.691-.025-1.534v-1.534H22.57v9.402h1.196v-.317c0-.21.012-.316.037-.316.02 0 .154.11.299.247.465.44.868.56 1.37.41zm-6.367-.03c.239-.09.52-.284.756-.526.109-.111.217-.201.24-.201.033 0 .044.09.044.366v.367h1.196v-6.968h-1.196v5.376l-.258.256c-.204.204-.29.266-.416.3-.214.06-.35.02-.438-.133-.066-.112-.068-.165-.078-2.957l-.008-2.842h-1.195v3.018c0 3.287.003 3.359.187 3.675.2.347.67.455 1.166.269zm.508 2.907c-.777-.014-1.696-.035-2.044-.048-2.331-.084-3.932-.174-4.251-.239a2.358 2.358 0 0 1-1.262-.766c-.473-.583-.726-1.291-.848-2.381-.284-2.535-.278-5.49.017-7.935.13-1.072.452-1.846.992-2.386a2.05 2.05 0 0 1 1-.582c.856-.22 7.554-.395 11.629-.304 2.353.052 4.896.162 5.572.239.874.1 1.488.554 1.913 1.415.321.65.423 1.157.554 2.718.102 1.235.127 2.005.108 3.432-.021 1.707-.13 3.21-.292 4.054-.17.893-.574 1.653-1.097 2.065-.403.319-.832.46-1.509.499l-.565.036c-.389.03-2.476.115-3.62.147-1.702.048-4.678.065-6.297.036zm-2.1-15.485c-.028-.047-.023-2.79.006-3.178.037-.498-.047-.89-.403-1.892a47.609 47.609 0 0 1-.464-1.4c-1.007-3.214-.954-3.026-.857-3.027a37.837 37.837 0 0 1 1.492.008c.006.007.221.79.478 1.744l.478 1.764c.005.016.156-.54.336-1.234.376-1.458.587-2.262.595-2.269.016-.016.203-.02.815-.016l.676.004-.015.109c-.012.088-.474 1.644-.957 3.225l-.3 1c-.11.376-.245.822-.3.992l-.096.31v1.93c0 1.812-.004 1.933-.058 1.947-.122.034-1.404.018-1.425-.017zm8.743.116c-.334-.045-.529-.174-.663-.44-.167-.334-.167-.332-.167-3.654v-3.1h1.347l.014 2.857c.015 3.105.011 3.032.196 3.08.17.041.359-.05.593-.29l.225-.23.008-2.709.008-2.709.674-.009.673-.008v7.097l-.092.019c-.11.023-1.13.021-1.213-.003-.05-.013-.058-.06-.058-.337v-.322l-.191.187c-.44.43-.915.63-1.354.57zm-3.392-1.355c.23-.177.232-.192.244-2.187.01-1.55.005-1.814-.042-2.025-.063-.286-.174-.42-.39-.48-.28-.075-.537.085-.627.393-.068.236-.067 3.753.001 3.99.053.178.22.372.343.4a.627.627 0 0 0 .472-.091h-.001zm-.528 1.353c-.603-.073-1.157-.429-1.423-.914-.272-.495-.297-.754-.281-2.932.013-1.687.017-1.793.084-2.035.159-.576.467-.968.944-1.205a1.939 1.939 0 0 1 1.98.119c.393.255.632.625.76 1.175.056.243.062.43.062 2.133 0 2.072-.01 2.192-.222 2.64-.203.433-.663.814-1.144.948-.212.058-.58.093-.76.071z" fill="#9B9B9B"/></g></svg>
